X: 1
T: Spanish Ladies
C: Trad
R: Polka
L: 1/8
M: 2/4
K: D
Z: ABC transcription by Verge Roller
|: A/G/ | "D" FA AB/c/ | "Bm" dd d/e/f | "Em" ge "D" fd | "G" BA "A" A/B/A/G/ |
"D" FA AB/c/ | "Bm" dd d/e/f | "Em" ge "D" fd | "A" BA A :|
|: z | "D" fa a/b/a/f/ | "Bm" ed de | "D" fa a/b/a/f/ | "Em" ed "A" e2 |
"D" fa a/b/a/f/ | "Bm" ed de/f/ | "Em" ge "D" fd | "A" BA A :|
r: 32
